packages/kaspersky-hexa-ui-icons/src/iconsSVGs/48/ShieldCracked.svg

<svg width="48" height="48" viewBox="0 0 48 48" fill="none" xmlns="http://www.w3.org/2000/svg">
<path fill-rule="evenodd" clip-rule="evenodd" d="M26.8006 0.84734C25.0481 -0.0775814 22.9519 -0.0775828 21.1995 0.847339L6.59972 8.55275C5.61575 9.07207 5 10.0933 5 11.2059V23.1583C5 33.2171 10.8021 42.3736 19.8978 46.6688L21.438 47.396C23.0601 48.1621 24.9399 48.162 26.562 47.396L28.1022 46.6688C37.1979 42.3736 43 33.2171 43 23.1583V11.2059C43 10.0933 42.3842 9.07207 41.4003 8.55275L26.8006 0.84734ZM25.4248 2.41596C25.5751 2.47328 25.7228 2.54 25.867 2.61611L40.4668 10.3215C40.7948 10.4946 41 10.835 41 11.2059V23.1583C41 32.4434 35.6442 40.8955 27.2482 44.8603L25.708 45.5875C25.5473 45.6634 25.3828 45.7281 25.2155 45.7814L30.9689 23.2474C31.0453 22.9482 30.9792 22.6304 30.7897 22.3866C30.6003 22.1427 30.3088 22 30 22H20.2956L25.4248 2.41596ZM23.4148 2.19666C22.9727 2.26201 22.539 2.40183 22.133 2.61611L7.53324 10.3215C7.20525 10.4946 7 10.835 7 11.2059V23.1583C7 32.4434 12.3558 40.8955 20.7518 44.8603L22.292 45.5875C22.5616 45.7149 22.842 45.8105 23.1277 45.8743L28.7126 24H19C18.6901 24 18.3977 23.8563 18.2084 23.611C18.019 23.3657 17.9541 23.0464 18.0326 22.7466L23.4148 2.19666Z" fill="black"/>
</svg>

<svg xmlns="http://www.w3.org/2000/svg" width="48" height="48" fill="none" viewBox="0 0 48 48"><path fill="#000" fill-rule="evenodd" d="M26.8006.8473a6 6 0 0 0-5.6011 0L6.5997 8.5527A3 3 0 0 0 5 11.206v11.9524c0 10.0588 5.8021 19.2152 14.8978 23.5104l1.5402.7273a6 6 0 0 0 5.124 0l1.5402-.7273C37.1979 42.3735 43 33.2171 43 23.1583V11.2059a3 3 0 0 0-1.5997-2.6532zM25.4248 2.416c.1503.0574.298.124.4422.2002l14.5998 7.7054A1 1 0 0 1 41 11.206v11.9524c0 9.2851-5.3558 17.7371-13.7518 21.7019l-1.5402.7273a4 4 0 0 1-.4925.1939l5.7534-22.534A1 1 0 0 0 30 22h-9.7044zm-2.01-.2193a4 4 0 0 0-1.2818.4195L7.5332 10.3215A1 1 0 0 0 7 11.2059v11.9524c0 9.2851 5.3558 17.7371 13.7519 21.7019l1.5401.7273c.2696.1274.55.2229.8357.2868L28.7126 24H19a1 1 0 0 1-.9674-1.2534z"/></svg>
